src/assets/icons/ChallengeDie_Success1.svg

<svg xmlns="http://www.w3.org/2000/svg" width="1155.16" height="1155.16" viewBox="0 0 1155 1155"><path fill="none" stroke="#000" d="M0 0h1155v1155H0zm491.04 53.47c-8.88 3.73-4.43 14.46 2.92 12.78 6.65-1.53 7.36-13.27-2.92-12.78ZM958 99.62c-6.89 3.67-4.62 6.04-8.41 11.38-4.77 6.72-10.81 11.83-17.59 16.38-3.84 2.58-9.62 4.64-10.67 9.62-1.54 7.33 6.01 9.38 10.67 12.1 4.01 2.35 7.74 5.43 10.82 8.9 4.32 4.88 10.4 18.46 16.18 19.67 8.03 1.67 8.16-6.12 10.57-10.67 1.37-2.58 3.46-4.9 5.47-7 2.14-2.25 5.44-5.6 7.96-7.31 5.32-3.61 17.46-7.2 15.67-15.69-1.09-5.14-6.83-6.61-10.67-9.22-4.13-2.81-11.39-8.82-14.28-12.78-4.45-6.11-6.63-16.62-15.72-15.38Zm-779 59c-6.89 3.67-4.62 6.04-8.41 11.38-4.77 6.72-10.81 11.83-17.59 16.38-3.84 2.58-9.62 4.64-10.67 9.62-1.54 7.33 6.01 9.38 10.67 12.1 4.01 2.35 7.74 5.43 10.82 8.9 4.32 4.88 10.4 18.46 16.18 19.67 8.03 1.67 8.16-6.12 10.57-10.67 1.37-2.58 3.46-4.9 5.47-7 2.14-2.25 5.44-5.6 7.96-7.31 5.32-3.61 17.46-7.2 15.67-15.69-1.09-5.14-6.83-6.61-10.67-9.22-4.13-2.81-11.39-8.82-14.28-12.78-4.45-6.11-6.63-16.62-15.72-15.38Zm216.21 2.11c-3.61 2.93-.26 4.9 1.48 4.03 1.52-.76 2.61-3.85-1.48-4.03ZM542 182l-5 1v2l5 1zm166.04 14.71c-8.49 4.57-2.54 12.5 2.91 10.65 5.25-1.79 5.74-10.96-2.91-10.65ZM1097 282c-2.43-4.11-4.22-3.49-5 1zm-647 5.47c-12.67 4.9-5.55 19.44 4 17.08 9.41-2.31 9.39-18-4-17.08ZM865 292c-6.73.54-6.73 4.46 0 5zm-221 54c-8.2 6.02-10.04 15.26-14.79 24l-11.48 18-15.16 25.99-8.4 12.01c-3.73 6.72-8.86 20.54-16.17 23.74-6.14 2.68-10.53-2.04-14.13-6.16-8.58-9.86-11.83-15.86-14.83-28.58l-4.62-45c-.74-5.45.6-10.33-2.42-15-1.9 6.68-1 32.37-1 41l-4-2-1 15-6-23h-1.92v15l1.92 17v21l-16-10 2.08 10v10c.43 3.59 1.56 7.45 0 10.98-.87 2.71-2.52 3.78-4.5 5.68-4.04 3.87-5.7 6.05-11.57 3.19-10.32-5.04-16.11-20.93-26.01-23.85l13 26c-6.08-5.28-18.03-17.96-25-20 1.24 5.02 2.59 6.23 6 10l-13-7 14 21c-10.57-.26-21.43-8.39-31-12.98l-24.01-11.18L392 437.92l-6-2.62-9-4.98c-3.88-1.81-4.84-1.74-9-4.22l-27-15.34c-4.76-2.42-7.56-4.73-13-3.76l2.42 4.71 24.62 18.8L396 461.25 422 482l-5 1v2l34 21.61c2.95 2.21 8.75 7.25 8.06 11.39-1.29 7.76-11.43 7.63-17.06 8.17l-9 .83H297c-4.71 0-11.75-.69-16 1l16 3.12 26 5.46 25 4.03 26 4.93 14 1.92 24 4.54v2l-21 1c1.45 4.14 2.85 3.92 7 4h35c-4.73 4.42-10.93 4.2-17 5.19l-19 3.53c-5.72.71-16.02 1.74-21 4.28h18l21-1c11.76-.02 24.37-2.83 36 0l-4 6 18 3c-3.76 4.35-5.63 6.24-11 8.65-5.01 2.25-11.82 3.57-15 8.35 13.72-.12 15.89-5.99 26-4-5.98 5.44-7.98 6.24-15 9.75-4.12 2.07-7.41 2.71-9 7.25 5.16-1.21 19.32-7.42 22.96-7.06 4.98.5 6.26 6.97 5.9 11.06-.94 10.62-10.57 14.97-13.86 27l9-3c-7.8 15.24-29.24 40.47-40.87 54-5.56 6.47-17.83 17.84-19.13 26 5.01-1.59 7.95-5.86 12.02-9.08l23.26-21.61 7.55-6.39c5.14-5.09 13.56-14.16 21.17-13.92-3.49 4.05-7.23 7.58-8 13 6.94-3.42 11-11.51 19-14.35 6.93-2.45 8.75 6.39 17.58-1L512 652.22c1.99-1.34 5.23-3.42 7.69-2.09 2.94 1.58 1.81 5.27 1.23 7.78L516.35 679 495 770c6.07-2.42 6.35-11.43 8.42-17l14.15-42c1.84-5.1 2.56-11.95 7.43-15l-1 11c4.2-2.73 4.08-7.42 5.51-12 2.35-7.55 6.83-24.08 10.49-30l4.3 9 2.7 31 2 22v113c7.89-.89 12.84-4.76 13-13v-44l1-16v-22l.96-12v-17l1.76-22c.39-3.33-.05-6.9 1.59-9.95 1.32-2.44 3.72-4.16 5.69-6.05l9.12 34c1.17 4.94 1.62 11.74 5.88 15l-3-44c6.15 6.16 6.94 15.17 9.54 23l3.56 8c1.85 5.31 2.71 11.15 7.9 14l-7.21-40c-1.48-6.94-4.16-16.05-2.79-23h2l8.22 11.04 10.81 17.87 6.75 8.1L640.06 727l10.45 15.41L654 744c-.49-9.97-3.52-10.59-6.49-19l-7.29-21-12.61-32c-2.19-7.68-7.23-12.4-5.61-21l9 7-2-8h5c1.59 5.28 3.77 6.7 9 8-1.41-10.29-14.33-26.42-12.71-34.91 2.15-11.26 18.37-9.39 26.28-7.6 15.37 3.5 34.47 12.19 49.43 18.37 6.7 2.77 18.34 8.18 25 9.14-1.63-4.83-5.83-6.6-10-9.19-7.07-4.39-14.63-8.44-21-13.81 8.01.67 24.3 6.91 33 9.57 5.39 1.64 11.8 2.51 16 6.43l6-1c-3.15-5.08-19.02-10.92-25-14.45l-41-21.08c-6.6-3.4-13.42-6.6-18.98-11.65-3.04-2.76-9.63-11.27-12.02-14.82l18-2h46l21-1c-3.12-5.19-10.53-4.5-16-5.15l-16-1.03c-3.51-.42-19.04-3.59-22-4.82 7.52 0 18.4.84 25-3-6.22-2.88-12.26-2-19-2l2-4-24-2c11.53-2.1 23.26-4 35-4-2.33-3.48-4.06-2.97-8-3h-35c-2.07 0-5.09.11-7-.6-4.41-1.64-7.99-7.04-4.98-11.44 1.71-2.51 14.7-10.51 17.98-12.39l32-15.74 36-17.57c7.5-3.63 21.24-6.76 25-14.26-7.89-1.58-21.05 6.48-29 9.31l-23 7.74-18 7.06-9 2.59c-10.75 3.71-19.18 8.75-31 9.3l9.21-13c10.34-12.15 22.43-19.92 29.79-35-6.38 1.73-6.96 4.02-12 7.32l-19 9.85c-1.79.85-9.45 5.89-10.47 2.46-1.2-4.07 7.4-8.14 9.47-14.63l-20 11 12-22c-7.37 1.83-7.96 5.06-13.18 9.65L632 467l-1-1 18.87-28c3.48-4.88 7.64-7.68 7.13-14l-28 29 17.72-32 8.28-16c-7.06 2.12-12.03 11.58-17 17l2.37-8 1.87-9 8.76-23c-6.12-.76-6.53 2.64-9.92 6.91L629 402c.51-11.02 7.56-27.53 11.86-38 1.09-2.66 5.09-11.65 4.92-14-.15-1.93-.89-2.52-1.78-4Zm-398.89 43.61c-7.75 4.89-1.07 12.2 4.66 9.65 4.31-1.92 4.83-11.23-4.66-9.65ZM923 417.82c-8.88 2.38-5.62 10.89 0 10.89 6.06 0 8.99-9.27 0-10.89Zm-800.98 4.69c-11.7 5.2-4.4 19.6 4.94 16.83 7.07-2.11 7.35-11.17 3.61-14.91-2.55-2.55-5.3-2.42-8.55-1.92Zm891.25 61.23c-3.16 2.62-.05 4 1.46 3.52 1.52-.49 2.82-3.31-1.46-3.52ZM881 488h-4v4h4zM216.99 597.03c-4.4 1.13-1.93 4.35 0 4.34 1.87-.01 3.75-2.31 0-4.34ZM94 658.51c-13.69 2.5-9.37 18.03 1 17.32 9.94-.69 11.47-16.12-1-17.32ZM859 682c.47-3.54.39-3.8-3-5 .18 3.37.1 3.27 3 5Zm150.18 1.91c-2.73 2.08-.49 3.41.64 3.18 1.12-.22 2.69-2.3-.64-3.18ZM783 807.43c-12.43 5.03-5.21 19.1 4 16.96 9.77-2.27 9.55-18.6-4-16.96ZM306 810c-4.11 2.43-3.49 4.22 1 5zm-200.58 38.71c-3.16 2.9.48 4.78 2.03 3.89 1.34-.76 1.88-3.65-2.03-3.89Zm806.64 31.91c-7.79 4.71-1.5 11.69 3.88 9.76 5.49-1.96 5.17-11.03-3.88-9.76ZM184 903c-.18-3.37-.1-3.27-3-5-.47 3.54-.39 3.8 3 5Zm688.27 48.74c-3.16 2.62-.05 4 1.46 3.52 1.52-.49 2.82-3.31-1.46-3.52ZM106 963c-3.97-.53-4.53.03-4 4zm483 .45c-12.41 4.95-5.25 19.09 4 16.94 9.73-2.26 9.62-18.32-4-16.94Zm-207.96 27.09c-8.45 3.31-3.92 11.93 1.94 10.92 6.13-1.05 7.01-10.68-1.94-10.92Zm-143.65 82.18c-2.97 2.65-.35 4.57 1.37 4.23 1.81-.36 3.14-3.97-1.37-4.23Zm348.87 3.19c-3.32 2.31-.89 4.46.72 4.18 1.68-.3 3.55-3.18-.72-4.18ZM94 1091c4.3-1.51 4.3-3.49 0-5zm922.04-3.46c-8.54 3.34-4.55 13.21 1.94 12.09 6.2-1.07 7.34-11.84-1.94-12.09ZM842 1095.43c-12.46 5.04-4.71 18.67 4 16.68 7.75-1.79 8.49-10.76 4.57-14.68-2.53-2.53-5.32-2.41-8.57-2Z"/></svg>

<?xml version="1.0" encoding="UTF-8" standalone="no"?>
<!DOCTYPE svg PUBLIC "-//W3C//DTD SVG 20010904//EN"
              "http://www.w3.org/TR/2001/REC-SVG-20010904/DTD/svg10.dtd">

<svg xmlns="http://www.w3.org/2000/svg"
     width="305.636mm" height="305.636mm"
     viewBox="0 0 1155 1155">
  <path id="Selection"
        fill="none" stroke="black" stroke-width="1"
        d="M 0.00,0.00
           C 0.00,0.00 1155.00,0.00 1155.00,0.00
             1155.00,0.00 1155.00,1155.00 1155.00,1155.00
             1155.00,1155.00 0.00,1155.00 0.00,1155.00
             0.00,1155.00 0.00,0.00 0.00,0.00 Z
           M 491.04,53.47
           C 482.16,57.20 486.61,67.93 493.96,66.25
             500.61,64.72 501.32,52.98 491.04,53.47 Z
           M 958.00,99.62
           C 951.11,103.29 953.38,105.66 949.59,111.00
             944.82,117.72 938.78,122.83 932.00,127.38
             928.16,129.96 922.38,132.02 921.33,137.00
             919.79,144.33 927.34,146.38 932.00,149.10
             936.01,151.45 939.74,154.53 942.82,158.00
             947.14,162.88 953.22,176.46 959.00,177.67
             967.03,179.34 967.16,171.55 969.57,167.00
             970.94,164.42 973.03,162.10 975.04,160.00
             977.18,157.75 980.48,154.40 983.00,152.69
             988.32,149.08 1000.46,145.49 998.67,137.00
             997.58,131.86 991.84,130.39 988.00,127.78
             983.87,124.97 976.61,118.96 973.72,115.00
             969.27,108.89 967.09,98.38 958.00,99.62 Z
           M 179.00,158.62
           C 172.11,162.29 174.38,164.66 170.59,170.00
             165.82,176.72 159.78,181.83 153.00,186.38
             149.16,188.96 143.38,191.02 142.33,196.00
             140.79,203.33 148.34,205.38 153.00,208.10
             157.01,210.45 160.74,213.53 163.82,217.00
             168.14,221.88 174.22,235.46 180.00,236.67
             188.03,238.34 188.16,230.55 190.57,226.00
             191.94,223.42 194.03,221.10 196.04,219.00
             198.18,216.75 201.48,213.40 204.00,211.69
             209.32,208.08 221.46,204.49 219.67,196.00
             218.58,190.86 212.84,189.39 209.00,186.78
             204.87,183.97 197.61,177.96 194.72,174.00
             190.27,167.89 188.09,157.38 179.00,158.62 Z
           M 395.21,160.73
           C 391.60,163.66 394.95,165.63 396.69,164.76
             398.21,164.00 399.30,160.91 395.21,160.73 Z
           M 542.00,182.00
           C 542.00,182.00 537.00,183.00 537.00,183.00
             537.00,183.00 537.00,185.00 537.00,185.00
             537.00,185.00 542.00,186.00 542.00,186.00
             542.00,186.00 542.00,182.00 542.00,182.00 Z
           M 708.04,196.71
           C 699.55,201.28 705.50,209.21 710.95,207.36
             716.20,205.57 716.69,196.40 708.04,196.71 Z
           M 1097.00,282.00
           C 1094.57,277.89 1092.78,278.51 1092.00,283.00
             1092.00,283.00 1097.00,282.00 1097.00,282.00 Z
           M 450.00,287.47
           C 437.33,292.37 444.45,306.91 454.00,304.55
             463.41,302.24 463.39,286.55 450.00,287.47 Z
           M 865.00,292.00
           C 858.27,292.54 858.27,296.46 865.00,297.00
             865.00,297.00 865.00,292.00 865.00,292.00 Z
           M 644.00,346.00
           C 635.80,352.02 633.96,361.26 629.21,370.00
             629.21,370.00 617.73,388.00 617.73,388.00
             617.73,388.00 602.57,413.99 602.57,413.99
             602.57,413.99 594.17,426.00 594.17,426.00
             590.44,432.72 585.31,446.54 578.00,449.74
             571.86,452.42 567.47,447.70 563.87,443.58
             555.29,433.72 552.04,427.72 549.04,415.00
             549.04,415.00 544.42,370.00 544.42,370.00
             543.68,364.55 545.02,359.67 542.00,355.00
             540.10,361.68 541.00,387.37 541.00,396.00
             541.00,396.00 537.00,394.00 537.00,394.00
             537.00,394.00 536.00,409.00 536.00,409.00
             536.00,409.00 530.00,386.00 530.00,386.00
             530.00,386.00 528.08,386.00 528.08,386.00
             528.08,386.00 528.08,401.00 528.08,401.00
             528.08,401.00 530.00,418.00 530.00,418.00
             530.00,418.00 530.00,439.00 530.00,439.00
             530.00,439.00 514.00,429.00 514.00,429.00
             514.00,429.00 516.08,439.00 516.08,439.00
             516.08,439.00 516.08,449.00 516.08,449.00
             516.51,452.59 517.64,456.45 516.08,459.98
             515.21,462.69 513.56,463.76 511.58,465.66
             507.54,469.53 505.88,471.71 500.01,468.85
             489.69,463.81 483.90,447.92 474.00,445.00
             474.00,445.00 487.00,471.00 487.00,471.00
             480.92,465.72 468.97,453.04 462.00,451.00
             463.24,456.02 464.59,457.23 468.00,461.00
             468.00,461.00 455.00,454.00 455.00,454.00
             455.00,454.00 469.00,475.00 469.00,475.00
             458.43,474.74 447.57,466.61 438.00,462.02
             438.00,462.02 413.99,450.84 413.99,450.84
             413.99,450.84 392.00,437.92 392.00,437.92
             392.00,437.92 386.00,435.30 386.00,435.30
             386.00,435.30 377.00,430.32 377.00,430.32
             373.12,428.51 372.16,428.58 368.00,426.10
             368.00,426.10 341.00,410.76 341.00,410.76
             336.24,408.34 333.44,406.03 328.00,407.00
             328.00,407.00 330.42,411.71 330.42,411.71
             330.42,411.71 355.04,430.51 355.04,430.51
             355.04,430.51 396.00,461.25 396.00,461.25
             396.00,461.25 422.00,482.00 422.00,482.00
             422.00,482.00 417.00,483.00 417.00,483.00
             417.00,483.00 417.00,485.00 417.00,485.00
             417.00,485.00 451.00,506.61 451.00,506.61
             453.95,508.82 459.75,513.86 459.06,518.00
             457.77,525.76 447.63,525.63 442.00,526.17
             442.00,526.17 433.00,527.00 433.00,527.00
             433.00,527.00 327.00,527.00 327.00,527.00
             327.00,527.00 297.00,527.00 297.00,527.00
             292.29,527.00 285.25,526.31 281.00,528.00
             281.00,528.00 297.00,531.12 297.00,531.12
             297.00,531.12 323.00,536.58 323.00,536.58
             323.00,536.58 348.00,540.61 348.00,540.61
             348.00,540.61 374.00,545.54 374.00,545.54
             374.00,545.54 388.00,547.46 388.00,547.46
             388.00,547.46 412.00,552.00 412.00,552.00
             412.00,552.00 412.00,554.00 412.00,554.00
             412.00,554.00 391.00,555.00 391.00,555.00
             392.45,559.14 393.85,558.92 398.00,559.00
             398.00,559.00 433.00,559.00 433.00,559.00
             428.27,563.42 422.07,563.20 416.00,564.19
             416.00,564.19 397.00,567.72 397.00,567.72
             391.28,568.43 380.98,569.46 376.00,572.00
             376.00,572.00 394.00,572.00 394.00,572.00
             394.00,572.00 415.00,571.00 415.00,571.00
             426.76,570.98 439.37,568.17 451.00,571.00
             451.00,571.00 447.00,577.00 447.00,577.00
             447.00,577.00 465.00,580.00 465.00,580.00
             461.24,584.35 459.37,586.24 454.00,588.65
             448.99,590.90 442.18,592.22 439.00,597.00
             452.72,596.88 454.89,591.01 465.00,593.00
             459.02,598.44 457.02,599.24 450.00,602.75
             445.88,604.82 442.59,605.46 441.00,610.00
             446.16,608.79 460.32,602.58 463.96,602.94
             468.94,603.44 470.22,609.91 469.86,614.00
             468.92,624.62 459.29,628.97 456.00,641.00
             456.00,641.00 465.00,638.00 465.00,638.00
             457.20,653.24 435.76,678.47 424.13,692.00
             418.57,698.47 406.30,709.84 405.00,718.00
             410.01,716.41 412.95,712.14 417.02,708.92
             417.02,708.92 440.28,687.31 440.28,687.31
             440.28,687.31 447.83,680.92 447.83,680.92
             452.97,675.83 461.39,666.76 469.00,667.00
             465.51,671.05 461.77,674.58 461.00,680.00
             467.94,676.58 472.00,668.49 480.00,665.65
             486.93,663.20 488.75,672.04 497.58,664.65
             497.58,664.65 512.00,652.22 512.00,652.22
             513.99,650.88 517.23,648.80 519.69,650.13
             522.63,651.71 521.50,655.40 520.92,657.91
             520.92,657.91 516.35,679.00 516.35,679.00
             516.35,679.00 495.00,770.00 495.00,770.00
             501.07,767.58 501.35,758.57 503.42,753.00
             503.42,753.00 517.57,711.00 517.57,711.00
             519.41,705.90 520.13,699.05 525.00,696.00
             525.00,696.00 524.00,707.00 524.00,707.00
             528.20,704.27 528.08,699.58 529.51,695.00
             531.86,687.45 536.34,670.92 540.00,665.00
             540.00,665.00 544.30,674.00 544.30,674.00
             544.30,674.00 547.00,705.00 547.00,705.00
             547.00,705.00 549.00,727.00 549.00,727.00
             549.00,727.00 549.00,840.00 549.00,840.00
             556.89,839.11 561.84,835.24 562.00,827.00
             562.00,827.00 562.00,783.00 562.00,783.00
             562.00,783.00 563.00,767.00 563.00,767.00
             563.00,767.00 563.00,745.00 563.00,745.00
             563.00,745.00 563.96,733.00 563.96,733.00
             563.96,733.00 563.96,716.00 563.96,716.00
             563.96,716.00 565.72,694.00 565.72,694.00
             566.11,690.67 565.67,687.10 567.31,684.05
             568.63,681.61 571.03,679.89 573.00,678.00
             573.00,678.00 582.12,712.00 582.12,712.00
             583.29,716.94 583.74,723.74 588.00,727.00
             588.00,727.00 585.00,683.00 585.00,683.00
             591.15,689.16 591.94,698.17 594.54,706.00
             594.54,706.00 598.10,714.00 598.10,714.00
             599.95,719.31 600.81,725.15 606.00,728.00
             606.00,728.00 598.79,688.00 598.79,688.00
             597.31,681.06 594.63,671.95 596.00,665.00
             596.00,665.00 598.00,665.00 598.00,665.00
             598.00,665.00 606.22,676.04 606.22,676.04
             606.22,676.04 617.03,693.91 617.03,693.91
             617.03,693.91 623.78,702.01 623.78,702.01
             623.78,702.01 640.06,727.00 640.06,727.00
             640.06,727.00 650.51,742.41 650.51,742.41
             650.51,742.41 654.00,744.00 654.00,744.00
             653.51,734.03 650.48,733.41 647.51,725.00
             647.51,725.00 640.22,704.00 640.22,704.00
             640.22,704.00 627.61,672.00 627.61,672.00
             625.42,664.32 620.38,659.60 622.00,651.00
             622.00,651.00 631.00,658.00 631.00,658.00
             631.00,658.00 629.00,650.00 629.00,650.00
             629.00,650.00 634.00,650.00 634.00,650.00
             635.59,655.28 637.77,656.70 643.00,658.00
             641.59,647.71 628.67,631.58 630.29,623.09
             632.44,611.83 648.66,613.70 656.57,615.49
             671.94,618.99 691.04,627.68 706.00,633.86
             712.70,636.63 724.34,642.04 731.00,643.00
             729.37,638.17 725.17,636.40 721.00,633.81
             713.93,629.42 706.37,625.37 700.00,620.00
             708.01,620.67 724.30,626.91 733.00,629.57
             738.39,631.21 744.80,632.08 749.00,636.00
             749.00,636.00 755.00,635.00 755.00,635.00
             751.85,629.92 735.98,624.08 730.00,620.55
             730.00,620.55 689.00,599.47 689.00,599.47
             682.40,596.07 675.58,592.87 670.02,587.82
             666.98,585.06 660.39,576.55 658.00,573.00
             658.00,573.00 676.00,571.00 676.00,571.00
             676.00,571.00 722.00,571.00 722.00,571.00
             722.00,571.00 743.00,570.00 743.00,570.00
             739.88,564.81 732.47,565.50 727.00,564.85
             727.00,564.85 711.00,563.82 711.00,563.82
             707.49,563.40 691.96,560.23 689.00,559.00
             696.52,559.00 707.40,559.84 714.00,556.00
             707.78,553.12 701.74,554.00 695.00,554.00
             695.00,554.00 697.00,550.00 697.00,550.00
             697.00,550.00 673.00,548.00 673.00,548.00
             684.53,545.90 696.26,544.00 708.00,544.00
             705.67,540.52 703.94,541.03 700.00,541.00
             700.00,541.00 665.00,541.00 665.00,541.00
             662.93,541.00 659.91,541.11 658.00,540.40
             653.59,538.76 650.01,533.36 653.02,528.96
             654.73,526.45 667.72,518.45 671.00,516.57
             671.00,516.57 703.00,500.83 703.00,500.83
             703.00,500.83 739.00,483.26 739.00,483.26
             746.50,479.63 760.24,476.50 764.00,469.00
             756.11,467.42 742.95,475.48 735.00,478.31
             735.00,478.31 712.00,486.05 712.00,486.05
             712.00,486.05 694.00,493.11 694.00,493.11
             694.00,493.11 685.00,495.70 685.00,495.70
             674.25,499.41 665.82,504.45 654.00,505.00
             654.00,505.00 663.21,492.00 663.21,492.00
             673.55,479.85 685.64,472.08 693.00,457.00
             686.62,458.73 686.04,461.02 681.00,464.32
             681.00,464.32 662.00,474.17 662.00,474.17
             660.21,475.02 652.55,480.06 651.53,476.63
             650.33,472.56 658.93,468.49 661.00,462.00
             661.00,462.00 641.00,473.00 641.00,473.00
             641.00,473.00 653.00,451.00 653.00,451.00
             645.63,452.83 645.04,456.06 639.82,460.65
             639.82,460.65 632.00,467.00 632.00,467.00
             632.00,467.00 631.00,466.00 631.00,466.00
             631.00,466.00 649.87,438.00 649.87,438.00
             653.35,433.12 657.51,430.32 657.00,424.00
             657.00,424.00 629.00,453.00 629.00,453.00
             629.00,453.00 646.72,421.00 646.72,421.00
             646.72,421.00 655.00,405.00 655.00,405.00
             647.94,407.12 642.97,416.58 638.00,422.00
             638.00,422.00 640.37,414.00 640.37,414.00
             640.37,414.00 642.24,405.00 642.24,405.00
             642.24,405.00 651.00,382.00 651.00,382.00
             644.88,381.24 644.47,384.64 641.08,388.91
             641.08,388.91 629.00,402.00 629.00,402.00
             629.51,390.98 636.56,374.47 640.86,364.00
             641.95,361.34 645.95,352.35 645.78,350.00
             645.63,348.07 644.89,347.48 644.00,346.00 Z
           M 245.11,389.61
           C 237.36,394.50 244.04,401.81 249.77,399.26
             254.08,397.34 254.60,388.03 245.11,389.61 Z
           M 923.00,417.82
           C 914.12,420.20 917.38,428.71 923.00,428.71
             929.06,428.71 931.99,419.44 923.00,417.82 Z
           M 122.02,422.51
           C 110.32,427.71 117.62,442.11 126.96,439.34
             134.03,437.23 134.31,428.17 130.57,424.43
             128.02,421.88 125.27,422.01 122.02,422.51 Z
           M 1013.27,483.74
           C 1010.11,486.36 1013.22,487.74 1014.73,487.26
             1016.25,486.77 1017.55,483.95 1013.27,483.74 Z
           M 881.00,488.00
           C 881.00,488.00 877.00,488.00 877.00,488.00
             877.00,488.00 877.00,492.00 877.00,492.00
             877.00,492.00 881.00,492.00 881.00,492.00
             881.00,492.00 881.00,488.00 881.00,488.00 Z
           M 216.99,597.03
           C 212.59,598.16 215.06,601.38 216.99,601.37
             218.86,601.36 220.74,599.06 216.99,597.03 Z
           M 94.00,658.51
           C 80.31,661.01 84.63,676.54 95.00,675.83
             104.94,675.14 106.47,659.71 94.00,658.51 Z
           M 859.00,682.00
           C 859.47,678.46 859.39,678.20 856.00,677.00
             856.18,680.37 856.10,680.27 859.00,682.00 Z
           M 1009.18,683.91
           C 1006.45,685.99 1008.69,687.32 1009.82,687.09
             1010.94,686.87 1012.51,684.79 1009.18,683.91 Z
           M 783.00,807.43
           C 770.57,812.46 777.79,826.53 787.00,824.39
             796.77,822.12 796.55,805.79 783.00,807.43 Z
           M 306.00,810.00
           C 301.89,812.43 302.51,814.22 307.00,815.00
             307.00,815.00 306.00,810.00 306.00,810.00 Z
           M 105.42,848.71
           C 102.26,851.61 105.90,853.49 107.45,852.60
             108.79,851.84 109.33,848.95 105.42,848.71 Z
           M 912.06,880.62
           C 904.27,885.33 910.56,892.31 915.94,890.38
             921.43,888.42 921.11,879.35 912.06,880.62 Z
           M 184.00,903.00
           C 183.82,899.63 183.90,899.73 181.00,898.00
             180.53,901.54 180.61,901.80 184.00,903.00 Z
           M 872.27,951.74
           C 869.11,954.36 872.22,955.74 873.73,955.26
             875.25,954.77 876.55,951.95 872.27,951.74 Z
           M 106.00,963.00
           C 102.03,962.47 101.47,963.03 102.00,967.00
             102.00,967.00 106.00,963.00 106.00,963.00 Z
           M 589.00,963.45
           C 576.59,968.40 583.75,982.54 593.00,980.39
             602.73,978.13 602.62,962.07 589.00,963.45 Z
           M 381.04,990.54
           C 372.59,993.85 377.12,1002.47 382.98,1001.46
             389.11,1000.41 389.99,990.78 381.04,990.54 Z
           M 237.39,1072.72
           C 234.42,1075.37 237.04,1077.29 238.76,1076.95
             240.57,1076.59 241.90,1072.98 237.39,1072.72 Z
           M 586.26,1075.91
           C 582.94,1078.22 585.37,1080.37 586.98,1080.09
             588.66,1079.79 590.53,1076.91 586.26,1075.91 Z
           M 94.00,1091.00
           C 98.30,1089.49 98.30,1087.51 94.00,1086.00
             94.00,1086.00 94.00,1091.00 94.00,1091.00 Z
           M 1016.04,1087.54
           C 1007.50,1090.88 1011.49,1100.75 1017.98,1099.63
             1024.18,1098.56 1025.32,1087.79 1016.04,1087.54 Z
           M 842.00,1095.43
           C 829.54,1100.47 837.29,1114.10 846.00,1112.11
             853.75,1110.32 854.49,1101.35 850.57,1097.43
             848.04,1094.90 845.25,1095.02 842.00,1095.43 Z" />
</svg>
